X:2
T:The Geese in the Bog
C:Traditional
N:Play two times through
N:The Armagh Set, figure 4, tune 2 of 2
Z:Gordon Turnbull, Edinburgh
Z:gturnbull@theflow.org.uk
Z:http://www.theflow.org.uk
R:Jig
M:6/8
L:1/8
K:Am
cEE GEE | cEE GAB | cEE GED  | EAA A2 B |
cEE GEE | cEE GAB | cBA GED  | EAG A3 :||
cde ged | eae ged | cde ged | eag a2 d |
cde ged | eae ged | cBA GED  | EAG A3 :||
